images/047-mechanic-1.svg

<svg width="79" height="79" viewBox="0 0 79 79" fill="none" xmlns="http://www.w3.org/2000/svg">
<path d="M30.0879 67.4791C30.3743 67.4791 30.6491 67.3653 30.8516 67.1628C31.0542 66.9602 31.168 66.6855 31.168 66.399V65.5557C31.168 65.2692 31.0542 64.9945 30.8516 64.7919C30.6491 64.5894 30.3743 64.4756 30.0879 64.4756C29.8014 64.4756 29.5267 64.5894 29.3242 64.7919C29.1216 64.9945 29.0078 65.2692 29.0078 65.5557V66.399C29.0078 66.6855 29.1216 66.9602 29.3242 67.1628C29.5267 67.3653 29.8014 67.4791 30.0879 67.4791Z" fill="#8A1A10"/>
<path d="M11.2637 67.4791C11.5501 67.4791 11.8248 67.3653 12.0274 67.1628C12.23 66.9602 12.3438 66.6855 12.3438 66.399V65.5557C12.3438 65.2692 12.23 64.9945 12.0274 64.7919C11.8248 64.5894 11.5501 64.4756 11.2637 64.4756C10.9772 64.4756 10.7025 64.5894 10.4999 64.7919C10.2974 64.9945 10.1836 65.2692 10.1836 65.5557V66.399C10.1836 66.6855 10.2974 66.9602 10.4999 67.1628C10.7025 67.3653 10.9772 67.4791 11.2637 67.4791Z" fill="#8A1A10"/>
<path d="M19.1537 18.6699H22.4669C22.7534 18.6699 23.0281 18.5561 23.2306 18.3536C23.4332 18.151 23.547 17.8763 23.547 17.5898C23.547 17.3034 23.4332 17.0287 23.2306 16.8261C23.0281 16.6236 22.7534 16.5098 22.4669 16.5098H19.1537C18.8672 16.5098 18.5925 16.6236 18.39 16.8261C18.1874 17.0287 18.0736 17.3034 18.0736 17.5898C18.0736 17.8763 18.1874 18.151 18.39 18.3536C18.5925 18.5561 18.8672 18.6699 19.1537 18.6699Z" fill="#8A1A10"/>
<path d="M19.1537 15.584H22.4669C22.7534 15.584 23.0281 15.4702 23.2306 15.2676C23.4332 15.0651 23.547 14.7904 23.547 14.5039C23.547 14.2175 23.4332 13.9427 23.2306 13.7402C23.0281 13.5376 22.7534 13.4238 22.4669 13.4238H19.1537C18.8672 13.4238 18.5925 13.5376 18.39 13.7402C18.1874 13.9427 18.0736 14.2175 18.0736 14.5039C18.0736 14.7904 18.1874 15.0651 18.39 15.2676C18.5925 15.4702 18.8672 15.584 19.1537 15.584Z" fill="#8A1A10"/>
<path d="M38.5742 73.691V63.3667C38.5742 63.3368 38.5838 63.3068 38.5812 63.277C38.4687 61.9678 38.0233 60.7092 37.2873 59.6206C36.5513 58.5321 35.5491 57.6499 34.376 57.058C34.3567 57.0482 34.3527 57.0391 34.3328 57.0306L27.3105 54.0269V53.6211C28.8535 53.7404 30.7668 53.7429 30.853 53.7427C31.0273 53.7426 31.1989 53.6999 31.3529 53.6183C31.5069 53.5367 31.6386 53.4187 31.7366 53.2746L32.0402 52.8281L32.1132 53.0166C32.1974 53.2287 32.3465 53.4087 32.5391 53.531C32.7318 53.6533 32.9581 53.7116 33.1859 53.6975C36.0817 53.5124 37.9073 53.0685 37.9845 53.0495C38.128 53.0142 38.2628 52.9497 38.3805 52.8602C38.4981 52.7707 38.5961 52.658 38.6685 52.5291C38.7408 52.4001 38.7859 52.2577 38.8009 52.1106C38.816 51.9636 38.8007 51.815 38.756 51.6741L34.6526 38.7429C35.405 38.2707 35.9896 37.5736 36.3235 36.7504C36.6573 35.9272 36.7235 35.0198 36.5125 34.1569C36.3876 33.6288 36.1396 33.1376 35.7888 32.7235C35.4381 32.3094 34.9944 31.984 34.494 31.7739L34.5665 30.705H36.1106C36.25 30.7091 36.3889 30.6853 36.519 30.6348C36.649 30.5844 36.7677 30.5084 36.8679 30.4114C36.9681 30.3143 37.0479 30.1981 37.1024 30.0697C37.157 29.9413 37.1852 29.8033 37.1855 29.6638V26.0906C37.1871 25.8031 37.0748 25.5266 36.8733 25.3216C36.6717 25.1166 36.3973 24.9996 36.1098 24.9961H35.2979C35.1146 21.872 34.0366 18.8665 32.1925 16.3381C30.4241 13.9278 27.9654 12.1114 25.1419 11.1295L25.23 10.2836C25.2454 10.1338 25.2291 9.98239 25.182 9.83932C25.1349 9.69624 25.0581 9.56472 24.9567 9.45334C24.8553 9.34196 24.7315 9.25324 24.5935 9.19296C24.4555 9.13269 24.3063 9.10222 24.1556 9.10356H17.1402C16.9893 9.10245 16.8398 9.13321 16.7016 9.19384C16.5634 9.25446 16.4396 9.34357 16.3381 9.45535C16.2367 9.56713 16.1601 9.69906 16.1131 9.8425C16.0662 9.98595 16.0501 10.1377 16.0659 10.2878L16.1538 11.1344C13.3284 12.1178 10.8691 13.9374 9.10244 16.3517C7.26282 18.8772 6.18586 21.8772 5.99922 24.9961H5.18592C4.58941 24.9961 4.16602 25.4941 4.16602 26.0906V29.6638C4.16 29.8003 4.1821 29.9366 4.23094 30.0643C4.27978 30.1919 4.35433 30.3082 4.44996 30.4058C4.54559 30.5034 4.66026 30.5804 4.78686 30.6319C4.91346 30.6834 5.04929 30.7083 5.18592 30.7051H6.66809L6.7403 31.7698C6.23815 31.977 5.79246 32.3007 5.44 32.7141C5.08754 33.1275 4.83841 33.6187 4.71315 34.1473C4.6327 34.4785 4.59209 34.818 4.59218 35.1587C4.59111 35.9307 4.80194 36.6882 5.20169 37.3486C5.60145 38.0091 6.1748 38.5471 6.85927 38.9042L2.8082 51.673C2.76335 51.814 2.74794 51.9626 2.76292 52.1098C2.7779 52.257 2.82295 52.3995 2.89529 52.5286C2.96762 52.6576 3.06569 52.7704 3.18342 52.86C3.30115 52.9496 3.43603 53.014 3.57969 53.0493C3.73568 53.0877 6.62397 53.7791 10.8812 53.779C11.8613 53.779 12.9609 53.7423 14.041 53.6525V54.0269L6.98826 57.0306C6.96836 57.0391 6.94197 57.0482 6.92176 57.058C5.74284 57.6478 4.7337 58.5284 3.98966 59.6165C3.24561 60.7047 2.7912 61.9646 2.66934 63.2772C2.66671 63.307 2.62305 63.3369 2.62305 63.3668V73.6912C2.63801 73.9919 2.76515 74.2761 2.97939 74.4877C3.19362 74.6992 3.47938 74.8228 3.78027 74.834H37.5156C38.1121 74.834 38.5742 74.2875 38.5742 73.691ZM29.7793 57.4236L30.3965 57.7014V62.1817H29.7793V57.4236ZM36.3358 51.172C35.7165 51.2749 34.8591 51.394 33.828 51.483L33.3004 50.1479C33.2284 49.9658 33.1082 49.8066 32.9527 49.6875C32.7972 49.5684 32.6123 49.4938 32.4176 49.4717C32.223 49.4497 32.0261 49.4809 31.8479 49.5622C31.6696 49.6434 31.5169 49.7716 31.4059 49.933L30.2885 51.5773C29.5929 51.5673 28.3906 51.5383 27.3105 51.4548V49.9273C30.2793 48.2143 32.4857 45.4365 33.4824 42.157L36.3358 51.172ZM15.8926 13.5519C16.4472 13.3181 17.0152 13.1177 17.5937 12.9516C17.8423 12.8867 18.0594 12.7351 18.206 12.5241C18.3525 12.3131 18.4187 12.0567 18.3927 11.8011L18.3382 11.2637H22.9577L22.9014 11.8011C22.8815 12.0601 22.9537 12.3178 23.1053 12.5287C23.2569 12.7397 23.4781 12.8903 23.7299 12.954C24.3175 13.1189 24.8949 13.3183 25.459 13.5512V14.7102C25.4515 16.1767 25.0057 17.6074 24.1787 18.8184C23.3518 20.0295 22.1815 20.9655 20.8184 21.5063C19.3833 21.0079 18.1384 20.0759 17.256 18.8393C16.3736 17.6027 15.8972 16.1225 15.8926 14.6033V13.5519ZM10.8398 17.6348C11.6514 16.5358 12.6313 15.5719 13.7434 14.7784C13.7767 16.7494 14.4253 18.6606 15.5983 20.2447C16.7713 21.8289 18.4101 23.0069 20.2856 23.6138L20.4769 23.6769C20.6998 23.7498 20.9405 23.748 21.1623 23.6718C23.0169 23.0333 24.6278 21.8351 25.7728 20.2424C26.9178 18.6498 27.5406 16.7411 27.5551 14.7797C28.666 15.5691 29.6452 16.529 30.4567 17.6238C32.0264 19.7797 32.9546 22.3354 33.1343 24.9961H8.1623C8.34564 22.3396 9.27358 19.7884 10.8398 17.6348ZM6.32617 28.545V27.1563H35.0254V28.545H25.5371C25.493 28.5392 25.4492 28.531 25.4061 28.5204C25.2785 28.5208 25.1512 28.5289 25.0246 28.545H6.32617ZM32.4002 30.7051L32.3324 31.6891C30.6701 32.0725 29.1775 31.4766 28.0725 30.7051H32.4002ZM21.421 30.7051C18.44 32.2481 13.7324 33.6974 8.91342 31.865L8.83334 30.7051H21.421ZM6.76762 35.1643C6.76243 34.9988 6.77714 34.8333 6.81144 34.6713C6.86193 34.4516 6.97063 34.2495 7.12614 34.0863C7.28165 33.9231 7.47823 33.8047 7.69525 33.7437C9.56912 34.5229 11.5796 34.9206 13.609 34.9136C15.909 34.8926 18.1854 34.4477 20.324 33.6011C22.0179 32.9468 23.631 32.1002 25.1317 31.0777C25.7118 31.6643 26.3524 32.1877 27.0428 32.6392C29.1084 33.9775 31.2706 34.3391 33.3227 33.6969C33.5821 33.7285 33.8256 33.8386 34.0205 34.0127C34.2154 34.1868 34.3523 34.4163 34.4128 34.6706C34.4522 34.8322 34.472 34.9979 34.4719 35.1643C34.4792 35.6458 34.3153 36.1143 34.0094 36.4863C33.7036 36.8582 33.2755 37.1095 32.8017 37.1953C32.555 37.2411 32.3327 37.3733 32.1747 37.5681C32.0167 37.763 31.9333 38.0078 31.9395 38.2586V38.2783C31.9395 39.7575 31.6481 41.2222 31.0821 42.5887C30.516 43.9553 29.6863 45.197 28.6404 46.2429C27.5945 47.2889 26.3528 48.1185 24.9862 48.6846C23.6196 49.2507 22.1549 49.542 20.6758 49.542C19.1966 49.542 17.7319 49.2507 16.3654 48.6846C14.9988 48.1185 13.7571 47.2889 12.7112 46.2429C11.6652 45.197 10.8356 43.9553 10.2695 42.5887C9.70345 41.2222 9.41211 39.7575 9.41211 38.2783V38.2595C9.40557 38.0023 9.30972 37.7553 9.14099 37.5611C8.97226 37.3668 8.74118 37.2373 8.48741 37.1948C8.00792 37.1123 7.5728 36.8635 7.25835 36.4922C6.94389 36.121 6.77016 35.6508 6.76762 35.1643ZM25.1504 50.9251V54.0709C22.2188 55.2734 18.9785 55.2732 16.2012 54.0709V50.9489C19.099 51.9657 22.2579 51.9575 25.1504 50.9257V50.9251ZM12.634 51.5762L12.97 50.1331C13.0364 49.8536 12.989 49.5592 12.8383 49.3147C12.6875 49.0702 12.4459 48.8956 12.1664 48.8292C11.8869 48.7629 11.5925 48.8103 11.348 48.961C11.1035 49.1117 10.9288 49.3534 10.8625 49.6329L10.391 51.6124C8.6637 51.5922 6.94027 51.4448 5.23468 51.1714L7.94629 42.6704C9.04257 45.7502 11.2044 48.3363 14.041 49.9614V51.4841C13.5781 51.5249 13.0865 51.5553 12.634 51.5762ZM13.7324 56.5017L15.0523 55.935C16.8175 56.7242 18.7294 57.1322 20.663 57.1322C22.5966 57.1322 24.5085 56.7242 26.2737 55.935L27.6191 56.5017V62.1817H13.7324V56.5017ZM10.9551 57.7015L11.5723 57.4238V62.1817H10.9551V57.7015ZM8.79492 62.1817H8.41875C7.82285 62.1817 7.40625 62.7103 7.40625 63.3068V72.6739H4.7832V63.4136C5.0918 61.5395 6.16077 59.8555 7.83936 59.0039L8.79492 58.6234V62.1817ZM31.7852 72.6739H9.56641V64.3418H31.7852V72.6739ZM36.4141 72.6739H33.9453V63.3068C33.9495 63.0168 33.8401 62.7367 33.6404 62.5265C33.4407 62.3162 33.1666 62.1924 32.8768 62.1817H32.5566V58.6234L33.4351 59.0039C34.2649 59.4259 34.9738 60.052 35.4949 60.8235C36.0161 61.5949 36.3324 62.4862 36.4141 63.4136V72.6739Z" fill="#8A1A10"/>
<path d="M64.8379 37.4941H66.2793C66.5658 37.4941 66.8405 37.3803 67.0431 37.1778C67.2456 36.9752 67.3594 36.7005 67.3594 36.4141C67.3594 36.1276 67.2456 35.8529 67.0431 35.6503C66.8405 35.4478 66.5658 35.334 66.2793 35.334H64.8379C64.5514 35.334 64.2767 35.4478 64.0742 35.6503C63.8716 35.8529 63.7578 36.1276 63.7578 36.4141C63.7578 36.7005 63.8716 36.9752 64.0742 37.1778C64.2767 37.3803 64.5514 37.4941 64.8379 37.4941Z" fill="#8A1A10"/>
<path d="M66.5909 39.3457H64.8379C64.5514 39.3457 64.2767 39.4595 64.0742 39.6621C63.8716 39.8646 63.7578 40.1393 63.7578 40.4258C63.7578 40.7122 63.8716 40.987 64.0742 41.1895C64.2767 41.3921 64.5514 41.5059 64.8379 41.5059H66.5909C66.8773 41.5059 67.152 41.3921 67.3546 41.1895C67.5571 40.987 67.6709 40.7122 67.6709 40.4258C67.6709 40.1393 67.5571 39.8646 67.3546 39.6621C67.152 39.4595 66.8773 39.3457 66.5909 39.3457Z" fill="#8A1A10"/>
<path d="M66.5909 43.5117H64.8379C64.5514 43.5117 64.2767 43.6255 64.0742 43.8281C63.8716 44.0306 63.7578 44.3053 63.7578 44.5918C63.7578 44.8783 63.8716 45.153 64.0742 45.3555C64.2767 45.5581 64.5514 45.6719 64.8379 45.6719H66.5909C66.8773 45.6719 67.152 45.5581 67.3546 45.3555C67.5571 45.153 67.6709 44.8783 67.6709 44.5918C67.6709 44.3053 67.5571 44.0306 67.3546 43.8281C67.152 43.6255 66.8773 43.5117 66.5909 43.5117Z" fill="#8A1A10"/>
<path d="M50.3008 39.1338C50.0143 39.1338 49.7396 39.2476 49.5371 39.4501C49.3345 39.6527 49.2207 39.9274 49.2207 40.2139V48.2896C49.2207 48.5761 49.3345 48.8508 49.5371 49.0534C49.7396 49.2559 50.0143 49.3697 50.3008 49.3697C50.5872 49.3697 50.862 49.2559 51.0645 49.0534C51.2671 48.8508 51.3809 48.5761 51.3809 48.2896V40.2139C51.3809 39.9274 51.2671 39.6527 51.0645 39.4501C50.862 39.2476 50.5872 39.1338 50.3008 39.1338Z" fill="#8A1A10"/>
<path d="M47.3691 39.1338C47.0827 39.1338 46.808 39.2476 46.6054 39.4501C46.4029 39.6527 46.2891 39.9274 46.2891 40.2139V48.2896C46.2891 48.5761 46.4029 48.8508 46.6054 49.0534C46.808 49.2559 47.0827 49.3697 47.3691 49.3697C47.6556 49.3697 47.9303 49.2559 48.1329 49.0534C48.3354 48.8508 48.4492 48.5761 48.4492 48.2896V40.2139C48.4492 39.9274 48.3354 39.6527 48.1329 39.4501C47.9303 39.2476 47.6556 39.1338 47.3691 39.1338Z" fill="#8A1A10"/>
<path d="M46.7026 5.10103L45.334 10.3109C45.2778 10.5582 45.3112 10.8175 45.4284 11.0425L46.4434 13.1155V28.3909H45.4206C44.8632 28.3953 44.3237 28.5882 43.8898 28.9381C43.456 29.2881 43.1534 29.7746 43.0312 30.3185C42.9091 30.8623 42.9745 31.4315 43.217 31.9334C43.4594 32.4353 43.8646 32.8404 44.3666 33.0828L43.0893 37.5378C43.0618 37.6369 43.0482 37.7393 43.0489 37.8422V49.507C43.0489 51.9604 45.0413 54.005 47.4946 54.005H50.1902C52.6435 54.005 54.6211 51.9604 54.6211 49.507V37.8422C54.6242 37.7417 54.6132 37.6412 54.5882 37.5438L53.3138 33.0948C53.8159 32.8517 54.2213 32.4462 54.4641 31.9439C54.7069 31.4416 54.7729 30.872 54.6515 30.3275C54.53 29.7829 54.2282 29.2954 53.7949 28.9439C53.3617 28.5924 52.8224 28.3975 52.2645 28.3909H51.2266V13.1155L52.2491 11.0362C52.3638 10.808 52.3943 10.5465 52.3351 10.2981L50.9742 5.10118C50.9142 4.87353 50.7793 4.67271 50.5913 4.53109C50.4032 4.38948 50.1729 4.31533 49.9376 4.32059H47.7473C47.511 4.31516 47.2797 4.38908 47.0903 4.53055C46.9009 4.67202 46.7644 4.87287 46.7026 5.10103ZM52.461 49.5063C52.461 50.7684 51.4525 51.844 50.1902 51.844H47.4946C46.8831 51.8321 46.3008 51.5804 45.8732 51.143C45.4457 50.7057 45.2071 50.1179 45.209 49.5063V37.9943L46.5446 33.3284H51.1402L52.461 37.9943V49.5063ZM52.2644 30.5511C52.3462 30.5511 52.4247 30.5836 52.4826 30.6414C52.5405 30.6993 52.573 30.7778 52.573 30.8597C52.573 30.9415 52.5405 31.02 52.4826 31.0779C52.4247 31.1357 52.3462 31.1682 52.2644 31.1682H45.4206C45.3387 31.1682 45.2602 31.1357 45.2023 31.0779C45.1445 31.02 45.112 30.9415 45.112 30.8597C45.112 30.7778 45.1445 30.6993 45.2023 30.6414C45.2602 30.5836 45.3387 30.5511 45.4206 30.5511H52.2644ZM49.1039 6.48075L50.1619 10.4895L49.2041 12.4198C49.1249 12.5581 49.0779 12.7124 49.0664 12.8713V28.3909H48.6035V12.8713C48.5948 12.7089 48.5505 12.5504 48.4738 12.407L47.5361 10.4895L48.581 6.48075H49.1039Z" fill="#8A1A10"/>
<path d="M70.4365 4.33188C70.2668 4.24961 70.0793 4.21089 69.8909 4.21922C69.7025 4.22754 69.5191 4.28265 69.3573 4.37956C69.1974 4.47493 69.064 4.60909 68.9696 4.76964C68.8752 4.93018 68.8229 5.11193 68.8173 5.29809V10.1711L65.7266 12.2478L62.5388 10.0077L62.5623 5.29624C62.5638 5.1121 62.5181 4.93064 62.4295 4.76923C62.3409 4.60781 62.2123 4.47183 62.0561 4.3743C61.8999 4.27676 61.7213 4.22094 61.5374 4.21216C61.3534 4.20338 61.1703 4.24195 61.0056 4.32417C59.2124 5.20891 57.7065 6.58328 56.6619 8.28826C55.6174 9.99324 55.0769 11.9591 55.1031 13.9585C55.1293 15.9578 55.721 17.9089 56.8099 19.5859C57.8987 21.263 59.4402 22.5974 61.2558 23.4349V49.5484C61.2558 50.7147 61.7191 51.8332 62.5438 52.6579C63.3685 53.4826 64.487 53.9459 65.6533 53.9459C66.8196 53.9459 67.9381 53.4826 68.7628 52.6579C69.5875 51.8332 70.0508 50.7147 70.0508 49.5484V23.4349C71.9113 22.6096 73.4904 21.259 74.5942 19.5489C75.6981 17.8388 76.2785 15.8437 76.2644 13.8083C76.2777 11.8415 75.7385 9.91051 74.7082 8.23513C73.6778 6.55975 72.1978 5.20734 70.4365 4.33188ZM68.628 21.7029C68.4178 21.7782 68.2351 21.9149 68.1036 22.0954C67.9721 22.2758 67.8979 22.4917 67.8906 22.7148V49.5484C67.8906 50.1418 67.6549 50.7109 67.2353 51.1304C66.8157 51.55 66.2467 51.7857 65.6533 51.7857C65.0599 51.7857 64.4909 51.55 64.0713 51.1304C63.6517 50.7109 63.416 50.1418 63.416 49.5484V22.7148C63.4213 22.497 63.3591 22.2829 63.238 22.1017C63.1169 21.9206 62.9428 21.7813 62.7395 21.7029C61.3503 21.1803 60.1236 20.3003 59.1835 19.1517C58.2433 18.0032 57.623 16.6268 57.3852 15.1617C57.1474 13.6965 57.3006 12.1946 57.8292 10.8077C58.3579 9.42072 59.2433 8.19789 60.3959 7.26275L60.3879 10.5647C60.3876 10.7392 60.4296 10.9112 60.5102 11.0659C60.5908 11.2207 60.7077 11.3536 60.8508 11.4535L65.1207 14.44C65.2987 14.5646 65.5102 14.6326 65.7275 14.6351C65.9448 14.6375 66.1578 14.5744 66.3387 14.4539L70.524 11.648C70.6683 11.5478 70.7853 11.4131 70.8644 11.2562C70.9434 11.0992 70.982 10.925 70.9765 10.7494V7.26923C71.9612 8.04858 72.7541 9.04323 73.2944 10.1768C73.8347 11.3104 74.108 12.5527 74.0933 13.8083C74.0907 15.5233 73.5665 17.1969 72.5904 18.607C71.6142 20.017 70.2323 21.0968 68.628 21.7029Z" fill="#8A1A10"/>
</svg>

<svg width="79" height="79" fill="none" xmlns="http://www.w3.org/2000/svg"><path d="M30.088 67.48a1.08 1.08 0 001.08-1.081v-.843a1.08 1.08 0 10-2.16 0v.843a1.08 1.08 0 001.08 1.08zm-18.824 0a1.08 1.08 0 001.08-1.081v-.843a1.08 1.08 0 10-2.16 0v.843a1.08 1.08 0 001.08 1.08zm7.89-48.81h3.313a1.08 1.08 0 100-2.16h-3.313a1.08 1.08 0 100 2.16zm0-3.086h3.313a1.08 1.08 0 100-2.16h-3.313a1.08 1.08 0 100 2.16z" fill="#8A1A10"/><path d="M38.574 73.691V63.367c0-.03.01-.06.007-.09a7.706 7.706 0 00-4.205-6.219c-.02-.01-.023-.019-.043-.027l-7.022-3.004v-.406c1.543.12 3.456.122 3.542.122a1.069 1.069 0 00.884-.468l.303-.447.073.189a1.083 1.083 0 001.073.68c2.896-.185 4.721-.629 4.798-.648a1.081 1.081 0 00.772-1.375l-4.103-12.931a4.229 4.229 0 001.86-4.586 3.444 3.444 0 00-2.019-2.383l.072-1.069h1.545a1.044 1.044 0 001.075-1.041V26.09a1.089 1.089 0 00-1.076-1.095h-.812a16.314 16.314 0 00-3.105-8.658 14.756 14.756 0 00-7.051-5.209l.088-.845a1.07 1.07 0 00-1.074-1.18H17.14a1.072 1.072 0 00-1.074 1.184l.088.846a14.742 14.742 0 00-7.052 5.218A16.34 16.34 0 006 24.996h-.813c-.597 0-1.02.498-1.02 1.095v3.573a.998.998 0 001.02 1.041h1.482l.072 1.065a3.426 3.426 0 00-2.027 2.377 4.28 4.28 0 00-.12 1.012 4.218 4.218 0 002.266 3.745L2.81 51.673a1.08 1.08 0 00.77 1.376c.157.039 3.045.73 7.302.73.98 0 2.08-.037 3.16-.127v.375L6.988 57.03c-.02.008-.046.017-.066.027a7.756 7.756 0 00-4.253 6.22c-.002.029-.046.059-.046.089V73.69a1.204 1.204 0 001.157 1.143h33.736c.596 0 1.058-.547 1.058-1.143zM29.78 57.424l.617.277v4.48h-.617v-4.757zm6.557-6.252c-.62.103-1.477.222-2.508.311l-.528-1.335a1.08 1.08 0 00-1.894-.215l-1.117 1.644a50.901 50.901 0 01-2.979-.122v-1.528a13.505 13.505 0 006.172-7.77l2.854 9.015zm-20.443-37.62a15.122 15.122 0 011.7-.6 1.077 1.077 0 00.8-1.15l-.055-.538h4.62l-.057.537a1.102 1.102 0 00.829 1.153 15.55 15.55 0 011.729.597v1.16a7.351 7.351 0 01-4.64 6.795 7.331 7.331 0 01-4.926-6.903v-1.051zm-5.053 4.083a12.985 12.985 0 012.903-2.857 9.454 9.454 0 006.543 8.836l.19.063c.224.073.465.071.686-.005a9.478 9.478 0 006.393-8.892c1.111.79 2.09 1.749 2.902 2.844a14.144 14.144 0 012.677 7.372H8.162a14.175 14.175 0 012.678-7.361zm-4.514 10.91v-1.389h28.7v1.389h-9.489a1.209 1.209 0 01-.13-.025 3.1 3.1 0 00-.382.025h-18.7zm26.074 2.16l-.068.984c-1.662.383-3.155-.212-4.26-.984H32.4zm-10.979 0c-2.981 1.543-7.689 2.992-12.508 1.16l-.08-1.16h12.588zm-14.653 4.46c-.006-.166.01-.332.043-.494a1.256 1.256 0 01.884-.927 15.265 15.265 0 005.914 1.17c2.3-.021 4.576-.466 6.715-1.313a23.712 23.712 0 004.808-2.523c.58.586 1.22 1.11 1.91 1.561 2.066 1.338 4.229 1.7 6.28 1.058a1.28 1.28 0 011.09.974c.04.161.06.327.06.493a2.033 2.033 0 01-1.67 2.031 1.055 1.055 0 00-.863 1.064v.02a11.264 11.264 0 01-22.527 0v-.02a1.108 1.108 0 00-.925-1.064 2.07 2.07 0 01-1.72-2.03zm18.382 15.76v3.146c-2.931 1.202-6.171 1.202-8.949 0v-3.122a13.416 13.416 0 008.95-.023zm-12.516.651l.336-1.443a1.083 1.083 0 10-2.107-.5l-.472 1.98a35.177 35.177 0 01-5.156-.442l2.711-8.5a13.696 13.696 0 006.095 7.29v1.523c-.463.04-.955.071-1.407.092zm1.098 4.926l1.32-.567a13.747 13.747 0 0011.222 0l1.345.567v5.68H13.732v-5.68zm-2.777 1.2l.617-.278v4.758h-.617v-4.48zm-2.16 4.48H8.42c-.596 0-1.013.528-1.013 1.125v9.367H4.783v-9.26c.309-1.875 1.378-3.559 3.056-4.41l.956-.38v3.558zm22.99 10.492H9.566v-8.332h22.22v8.332zm4.63 0h-2.47v-9.367a1.11 1.11 0 00-1.068-1.125h-.32v-3.559l.878.38a5.487 5.487 0 012.98 4.41v9.26zm28.422-35.18h1.441a1.08 1.08 0 000-2.16h-1.441a1.08 1.08 0 100 2.16zm1.752 1.852h-1.752a1.08 1.08 0 100 2.16h1.753a1.08 1.08 0 000-2.16zm0 4.166h-1.752a1.08 1.08 0 100 2.16h1.753a1.08 1.08 0 000-2.16zM50.3 39.134a1.08 1.08 0 00-1.08 1.08v8.076a1.08 1.08 0 102.16 0v-8.076a1.08 1.08 0 00-1.08-1.08zm-2.93 0a1.08 1.08 0 00-1.08 1.08v8.076a1.08 1.08 0 002.16 0v-8.076a1.08 1.08 0 00-1.08-1.08z" fill="#8A1A10"/><path d="M46.703 5.101l-1.369 5.21a1.07 1.07 0 00.094.732l1.015 2.073V28.39h-1.022a2.47 2.47 0 00-1.054 4.692l-1.278 4.455a1.11 1.11 0 00-.04.304v11.665c0 2.453 1.992 4.498 4.446 4.498h2.695c2.454 0 4.431-2.045 4.431-4.498V37.842c.003-.1-.008-.2-.033-.298l-1.274-4.45a2.476 2.476 0 00-1.05-4.703h-1.037V13.116l1.022-2.08c.115-.228.145-.49.086-.738l-1.36-5.197a1.048 1.048 0 00-1.037-.78h-2.19a1.057 1.057 0 00-1.045.78zm5.758 44.405c0 1.262-1.008 2.338-2.27 2.338h-2.696a2.33 2.33 0 01-2.286-2.338V37.994l1.336-4.666h4.595l1.321 4.666v11.512zm-.197-18.955a.309.309 0 010 .617h-6.843a.309.309 0 110-.617h6.843zm-3.16-24.07l1.058 4.008-.958 1.93c-.08.14-.126.293-.138.452v15.52h-.463V12.87a1.11 1.11 0 00-.13-.464l-.937-1.918 1.045-4.008h.523zm21.332-2.149a1.136 1.136 0 00-1.466.438c-.095.16-.147.342-.153.528v4.873l-3.09 2.077-3.188-2.24.023-4.712a1.077 1.077 0 00-1.556-.972 10.589 10.589 0 00.25 19.11v26.114a4.397 4.397 0 108.795 0V23.435a10.452 10.452 0 006.213-9.627 10.503 10.503 0 00-5.828-9.476zm-1.808 17.37a1.113 1.113 0 00-.737 1.013v26.833a2.237 2.237 0 11-4.475 0V22.715a1.057 1.057 0 00-.676-1.012 8.431 8.431 0 01-2.344-14.44l-.008 3.302a1.08 1.08 0 00.463.889l4.27 2.986a1.08 1.08 0 001.218.014l4.185-2.806a1.055 1.055 0 00.453-.899V7.27a8.217 8.217 0 013.116 6.54 8.454 8.454 0 01-5.465 7.894z" fill="#8A1A10"/></svg>
